public/common/euro-mobile.svg

<svg width="60" height="60" viewBox="0 0 60 60" fill="none" xmlns="http://www.w3.org/2000/svg">
<circle cx="30" cy="30" r="30" fill="#34D186"/>
<path d="M31.4517 45.2059C28.5557 45.2059 26.0449 44.3291 23.9191 42.5755C21.8242 40.7911 20.4224 38.1761 19.7138 34.7305H16.8486V31.5463L19.3441 31.3617C19.3133 31.1464 19.2979 30.9464 19.2979 30.7618C19.2979 30.5772 19.2979 30.3773 19.2979 30.1619C19.2979 29.9466 19.2979 29.7466 19.2979 29.562C19.2979 29.3467 19.3133 29.1467 19.3441 28.9621H16.8486V25.8241L19.7138 25.5933C20.0835 23.8705 20.638 22.3477 21.3774 21.0248C22.1168 19.6711 23.0103 18.5328 24.0577 17.6099C25.136 16.687 26.3375 15.9947 27.6623 15.5333C28.987 15.041 30.4196 14.7949 31.96 14.7949C33.3464 14.7949 34.702 15.1026 36.0267 15.7179C37.3515 16.3332 38.5068 17.2253 39.4926 18.3944L35.7032 22.04C35.1179 21.4555 34.5017 20.9786 33.8547 20.6095C33.2386 20.2403 32.53 20.0557 31.729 20.0557C30.4042 20.0557 29.2951 20.5325 28.4017 21.4863C27.5391 22.44 26.9229 23.7936 26.5532 25.5472H36.4426V28.9621H26.1373V29.9312C26.1373 30.1773 26.1373 30.408 26.1373 30.6234C26.1373 30.8387 26.1527 31.0541 26.1835 31.2694H34.5941V34.7305H26.6456C27.0769 36.4225 27.7239 37.7147 28.5865 38.6068C29.48 39.499 30.5737 39.9451 31.8676 39.9451C32.761 39.9451 33.5313 39.7298 34.1782 39.299C34.856 38.8683 35.503 38.253 36.1191 37.4532L39.8623 40.9603C38.7532 42.3448 37.4901 43.4061 36.0729 44.1445C34.6558 44.8521 33.1153 45.2059 31.4517 45.2059Z" fill="#F9FDFF"/>
</svg>

<svg width="60" height="60" fill="none" xmlns="http://www.w3.org/2000/svg"><circle cx="30" cy="30" r="30" fill="#34D186"/><path d="M31.452 45.206c-2.896 0-5.407-.877-7.533-2.63-2.095-1.785-3.497-4.4-4.205-7.846h-2.865v-3.184l2.495-.184a4.254 4.254 0 0 1-.046-.6v-1.2c0-.215.015-.415.046-.6H16.85v-3.138l2.865-.23c.37-1.724.924-3.246 1.663-4.57.74-1.353 1.633-2.491 2.68-3.414a11.129 11.129 0 0 1 3.605-2.077c1.325-.492 2.758-.738 4.298-.738 1.386 0 2.742.308 4.067.923 1.325.615 2.48 1.507 3.466 2.676l-3.79 3.646a8.784 8.784 0 0 0-1.848-1.43c-.616-.37-1.325-.554-2.126-.554-1.325 0-2.434.476-3.327 1.43-.863.954-1.48 2.308-1.849 4.061h9.89v3.415H26.137v1.661c0 .216.016.431.046.646h8.411v3.462h-7.948c.43 1.691 1.078 2.984 1.94 3.876.894.892 1.988 1.338 3.282 1.338.893 0 1.663-.215 2.31-.646.678-.43 1.325-1.046 1.941-1.846l3.743 3.507c-1.109 1.385-2.372 2.446-3.79 3.184-1.416.708-2.957 1.062-4.62 1.062z" fill="#F9FDFF"/></svg>
